X:1
T:Title
%%score { ( 1 3 ) | ( 2 4 ) }
L:1/8
Q:1/4=80
M:3/4
K:Eb
V:1 treble nm="Grand Piano"
V:3 treble 
V:2 bass 
V:4 bass 
V:1
 G3 F EF | G2 [B,FA]2 [EGB]2 | [EAc]3 [Ece] [EBd][EAc] | [EGB]6 | [DFB]3 [DF] [_D=E][=DF] | %5
w: Charles~H.~Gabriel * * *|||||
 [DA]2 [DB]2 [DAc]2 | [FAd]3 [EAc] [DAB][DAc] | [EGB]6 | [B,EG]3 [A,EF] [G,E][A,EF] | %9
w: ||||
 [B,EG]2 [B,FA]2 [EGB]2 | [EAc]3 [Ece] [EBd][EAc] | [EGB]6 | [CEB]3 [CE=A] [CEG][CFA] | %13
w: ||||
 [B,FB]2 [B,FB]2 [Gc]2 | d3 e dc |[M:7/8] B-[EB-][FB-] [GB-] [AB]3 |[M:3/4] [EGB]3 G FE | G2 G4 | %18
w: |||||
 [Ge]3 [Gd] [Gc][EG] | [AB]2 [AB]4 | [Ad]3 [Ac] [DF][EG] | [FA]2 [FA]2 [GB]2 | %22
w: ||||
 [DAc]3 [DAd] [DAc][DAd] | [GB]6 | [GB]3 G FE | G2 G4 | [Ge]3 [Gd] [Gc][GB] | [Bd]2 c4 | e3 e dc | %29
w: |||||||
 e2 B2 G2 | [GB]3 [GB] [FA][DF] | E6 |] %32
w: |||
V:2
 [E,B,E]3 [E,A,E] [E,G,][E,A,E] | [E,B,E]2 E,2 E,2 | A,3 A, A,A, | E,6 | %4
 B,,3 [B,,B,] [B,,B,][B,,B,] | [B,,B,]2 [B,,B,]2 B,,2 | B,,3 B,, B,,B,, | E,6 | E,3 E, E,E, | %9
 E,2 E,2 E,2 | A,3 A, A,A, | E,6 | F,3 F, F,E, | D,2 D,2 [E,B,]2 | %14
 [F,B,F]3 [F,CF] [F,B,F][F,=A,E] |[M:7/8] z CD E D3 |[M:3/4] E,3 [E,B,E] [E,A,B,][E,G,B,] | %17
 [E,B,E]2 [E,B,E]4 | [E,B,]3 [E,B,] [E,E][E,B,] | [F,D]2 [F,D]4 | [B,,B,]3 [B,,B,] [B,,B,][B,,B,] | %21
 [B,,B,]2 [B,,B,]2 [B,,B,]2 | B,,3 B,, B,,B,, | [E,E]6 | [E,E]3 [E,B,E] [E,A,B,][E,G,B,] | %25
 [E,B,E]2 [E,B,E]4 | [E,B,]3 [E,B,] [E,B,][E,E] | [A,E]2 [A,EA]4 | [B,C_G]3 [B,CG] [B,CG][B,EG] | %29
 [B,EG]2 [B,EG]2[K:bass] [B,E]2 | [B,,B,]3 [B,,B,] [B,,B,][B,,B,] | [E,G,]6 |] %32
V:3
 x6 | x6 | x6 | x6 | x6 | x6 | x6 | x6 | x6 | x6 | x6 | x6 | x6 | x6 | x6 | %15
[M:7/8] [B,D] z z z z z2 |[M:3/4] x6 | x6 | x6 | x6 | x6 | x6 | x6 | x6 | x6 | x6 | x6 | x6 | x6 | %29
 x6 | x6 | x6 |] %32
V:4
 x6 | x6 | x6 | x6 | x6 | x6 | x6 | x6 | x6 | x6 | x6 | x6 | x6 | x6 | x6 | %15
[M:7/8] B,,-B,,-B,,- B,,- B,,3 |[M:3/4] x6 | x6 | x6 | x6 | x6 | x6 | x6 | x6 | x6 | x6 | x6 | x6 | %28
 x6 | x4[K:bass] x2 | x6 | x6 |] %32

